img/souses.svg

<svg width="33" height="20" viewBox="0 0 33 20" fill="none" xmlns="http://www.w3.org/2000/svg">
<path d="M32.4807 4.42141C32.4487 1.97792 30.4575 0 28.0144 0C25.8318 0 24.011 1.57913 23.6245 3.65834C22.8572 3.99896 21.5244 4.54366 20.7302 4.67626C19.7727 4.83597 18.6155 4.88404 17.2908 4.81872C14.7605 4.69401 12.2344 3.86735 9.98535 2.42748C7.15527 0.615927 4.74487 0.192 2.16968 1.05292C1.1709 1.38688 0.5 2.32963 0.5 3.3993C0.5 3.74584 0.687744 4.06477 0.989502 4.23065C1.33447 4.41993 1.65698 4.58359 1.96899 4.74158C3.65918 5.59806 4.59033 6.0698 5.20727 8.66956C5.66821 10.6108 6.47461 12.2379 7.60449 13.5055C8.08398 14.0436 8.62304 14.5183 9.21655 14.9269H22.0471C23.9853 13.4666 25.1719 11.2513 25.498 8.45833C25.6938 6.7816 25.5293 5.31979 25.4145 4.59936C25.4194 4.56067 25.4226 4.52148 25.4226 4.48131C25.4226 3.054 26.5852 1.89288 28.0144 1.89288C29.4433 1.89288 30.6062 3.054 30.6062 4.48131C30.6062 4.52641 30.6094 4.57151 30.6157 4.61612C30.6169 4.62549 30.7204 5.56404 30.1423 6.23765C29.6684 6.78974 28.8313 7.06973 27.6543 7.06973C27.1365 7.06973 26.7168 7.49341 26.7168 8.01617C26.7168 8.53868 27.1365 8.96261 27.6543 8.96261C29.3996 8.96261 30.7136 8.46277 31.5593 7.47689C32.5967 6.26821 32.5205 4.79876 32.4807 4.42141Z" fill="#FF7010"/>
<path d="M9.22168 16.8193C9.16943 17.0232 9.14185 17.2369 9.14185 17.4567V19.0533C9.14185 19.5758 9.56152 19.9998 10.0791 19.9998H21.2441C21.7617 19.9998 22.1816 19.5758 22.1816 19.0533V17.4567C22.1816 17.2369 22.1538 17.0232 22.1016 16.8193H9.22168Z" fill="#FF7010"/>
</svg>

<svg width="33" height="20" fill="none" xmlns="http://www.w3.org/2000/svg"><path d="M32.48 4.421C32.45 1.978 30.459 0 28.015 0c-2.182 0-4.003 1.58-4.39 3.658-.767.341-2.1.886-2.894 1.018-.957.16-2.114.208-3.44.143-2.53-.125-5.056-.952-7.305-2.392C7.155.616 4.745.192 2.17 1.053A2.461 2.461 0 0 0 .5 3.399c0 .347.188.666.49.832.344.189.667.353.979.51 1.69.857 2.621 1.329 3.238 3.929.461 1.94 1.268 3.568 2.397 4.835a8.956 8.956 0 0 0 1.613 1.422h12.83c1.938-1.46 3.125-3.676 3.451-6.469a14.55 14.55 0 0 0-.084-3.859.936.936 0 0 0 .009-.118 2.593 2.593 0 0 1 5.183 0c0 .045.003.09.01.135 0 .01.104.948-.474 1.622-.474.552-1.31.832-2.488.832a.942.942 0 0 0-.937.946c0 .523.42.947.937.947 1.746 0 3.06-.5 3.905-1.486 1.038-1.209.961-2.678.922-3.056ZM9.222 16.82c-.053.203-.08.417-.08.637v1.596c0 .523.42.947.937.947h11.165a.942.942 0 0 0 .938-.947v-1.596c0-.22-.028-.434-.08-.638H9.222Z" fill="#FF7010"/></svg>
